X:1
T:Title
%%score 1 2 3
L:1/8
Q:1/4=100
M:2/4
K:F
V:1 treble nm="Glockenspiel, Staff"
V:2 treble nm="Harmonica, Staff-1"
V:3 treble nm="Nylon Gtr., Staff-2"
V:1
 F2 [Acf][CF] | D[Adf] [Adf][A,FA] | B,[Bdf] [Bdf][B,FB] | B,2 [Gce]2 | z4 | z4 | z4 | z4 | z4 | %9
w: By~anonima * *|||||||||
 z4 | z4 | z4 | z4 | z4 | z4 | z4 | z4 | z4 | z4 | z2 AB | A2 c[Fc] | [Af]2 [df][Af] | %22
w: |||||||||||||
 [Af]2 [Ff][Bf] | [ce]2 [ce]2 | [Af]4 | D[Adf] [Adf][A,FA] | B,[Bdf] [Bdf][B,FB] | C2 [Gce]2 | z4 | %29
w: |||||||
 z4 | z4 | z4 | z4 | z4 | z4 | z4 | z4 | z4 | z4 | z4 | z4 | z4 | z4 | z4 | F2 [Acf][CF] | %45
w: ||||||||||||||||
 D[Adf] [Adf][A,FA] | B,[Bdf] [Bdf][B,FB] | B,2 [Gce]2 | z4 | z4 | z4 | z4 | z4 | z4 | z4 | z4 | %56
w: |||||||||||
 z4 | z4 | z4 | z4 | z4 | z4 | z4 | z2 AB | A2 c[Fc] | [Af]2 [df][Af] | [Af]2 [Ff][Bf] | %67
w: |||||||||||
 [ce]2 [ce]2 | [Af]4 | D[Adf] [Adf][A,FA] | B,[Bdf] [Bdf][B,FB] | C2 [Gce]2 | z4 | z4 | z4 | z4 | %76
w: |||||||||
 z4 | z4 | z4 | z4 | z4 | z4 | z4 | z4 | z4 | z4 | z4 | z4 | F2 [Acf][CF] | D[Adf] [Adf][A,FA] | %90
w: ||||||||||||||
 B,[Bdf] [Bdf][B,FB] | B,2 [Gce]2 | z4 | z4 | z4 | z4 | z4 | z4 | z4 | z4 | z4 | z4 | z4 | z4 | %104
w: ||||||||||||||
 z4 | z4 | z4 | z2 AB | A2 c[Fc] | [Af]2 [df][Af] | [Af]2 [Ff][Bf] | [ce]2 [ce]2 | [Af]4 | %113
w: |||||||||
 D[Adf] [Adf][A,FA] | B,[Bdf] [Bdf][B,FB] | C2 [Gce]2 | z4 | z4 | z4 | z4 | z4 | z4 | z4 | z4 | %124
w: |||||||||||
 z4 | z4 | z4 | z4 | z4 | z4 | z4 | z4 | F2 [Acf][CF] | D[Adf] [Adf][A,FA] | B,[Bdf] [Bdf][B,FB] | %135
w: |||||||||||
 B,2 [Gce]2 | z4 | z4 | z4 | z4 | z4 | z4 | z4 | z4 | z4 | z4 | z4 | z4 | z4 | z4 | z4 | z2 AB | %152
w: |||||||||||||||||
 A2 c[Fc] | [Af]2 [df][Af] | [Af]2 [Ff][Bf] | [ce]2 [ce]2 | [Af]4 | D[Adf] [Adf][A,FA] | %158
w: ||||||
 B,[Bdf] [Bdf][B,FB] | C2 [Gce]2 | z4 | z4 | z4 | z4 | z4 | z4 | z4 | z4 | z4 | z4 | z4 | z4 | z4 | %173
w: |||||||||||||||
 z4 | z4 | z4 | F2 [Acf][CF] | D[Adf] [Adf][A,FA] | B,[Bdf] [Bdf][B,FB] | B,2 [Gce]2 | z4 | z4 | %182
w: |||||||||
 z4 | z4 | z4 | z4 | z4 | z4 | z4 | z4 | z4 | z4 | z4 | z4 | z4 | z2 AB | A2 c[Fc] | %197
w: |||||||||||||||
 [Af]2 [df][Af] | [Af]2 [Ff][Bf] | [ce]2 [ce]2 | [Af]4 | D[Adf] [Adf][A,FA] | B,[Bdf] [Bdf][B,FB] | %203
w: ||||||
 C2 [Gce]2 | z4 | z4 | z4 | z4 | z4 | z4 | z4 | z4 | z4 | z4 | z4 | z4 | z4 | z4 | z4 | z4 | %220
w: |||||||||||||||||
 F2 [Acf][CF] | D[Adf] [Adf][A,FA] | B,[Bdf] [Bdf][B,FB] | B,2 [Gce]2 | z4 | z4 | z4 | z4 | z4 | %229
w: |||||||||
 z4 | z4 | z4 | z4 | z4 | z4 | z4 | z4 | z4 | z4 | z2 AB | A2 c[Fc] | [Af]2 [df][Af] | %242
w: |||||||||||||
 [Af]2 [Ff][Bf] | [ce]2 [ce]2 | [Af]4 |] %245
w: |||
V:2
 z4 | z4 | z4 | z4 | F2 A2 | F4 | GA BA | G4 | A2 F2 | D2 D2 | BA GF | E4 | c2 A2 | d2 A2 | B2 G2 | %15
 c4 | A2 F2 | A2 F2 | B2 A2 | G2 AB | c2 AB | c2 AB | c2 AB | G2 A2 | F4 | z4 | z4 | z4 | F2 F2 | %29
 A2 A2 | B2 A2 | G2 z2 | c2 B2 | A2 F2 | B2 A2 | G2 z2 | F2 F2 | A2 F2 | G2 A2 | B2 z2 | c2 A2 | %41
 d2 c2 | B4 | G2 z2 | z4 | z4 | z4 | z4 | F2 A2 | F4 | GA BA | G4 | A2 F2 | D2 D2 | BA GF | E4 | %56
 c2 A2 | d2 A2 | B2 G2 | c4 | A2 F2 | A2 F2 | B2 A2 | G2 AB | c2 AB | c2 AB | c2 AB | G2 A2 | F4 | %69
 z4 | z4 | z4 | F2 F2 | A2 A2 | B2 A2 | G2 z2 | c2 B2 | A2 F2 | B2 A2 | G2 z2 | F2 F2 | A2 F2 | %82
 G2 A2 | B2 z2 | c2 A2 | d2 c2 | B4 | G2 z2 | z4 | z4 | z4 | z4 | F2 A2 | F4 | GA BA | G4 | A2 F2 | %97
 D2 D2 | BA GF | E4 | c2 A2 | d2 A2 | B2 G2 | c4 | A2 F2 | A2 F2 | B2 A2 | G2 AB | c2 AB | c2 AB | %110
 c2 AB | G2 A2 | F4 | z4 | z4 | z4 | F2 F2 | A2 A2 | B2 A2 | G2 z2 | c2 B2 | A2 F2 | B2 A2 | %123
 G2 z2 | F2 F2 | A2 F2 | G2 A2 | B2 z2 | c2 A2 | d2 c2 | B4 | G2 z2 | z4 | z4 | z4 | z4 | F2 A2 | %137
 F4 | GA BA | G4 | A2 F2 | D2 D2 | BA GF | E4 | c2 A2 | d2 A2 | B2 G2 | c4 | A2 F2 | A2 F2 | %150
 B2 A2 | G2 AB | c2 AB | c2 AB | c2 AB | G2 A2 | F4 | z4 | z4 | z4 | F2 F2 | A2 A2 | B2 A2 | %163
 G2 z2 | c2 B2 | A2 F2 | B2 A2 | G2 z2 | F2 F2 | A2 F2 | G2 A2 | B2 z2 | c2 A2 | d2 c2 | B4 | %175
 G2 z2 | z4 | z4 | z4 | z4 | F2 A2 | F4 | GA BA | G4 | A2 F2 | D2 D2 | BA GF | E4 | c2 A2 | d2 A2 | %190
 B2 G2 | c4 | A2 F2 | A2 F2 | B2 A2 | G2 AB | c2 AB | c2 AB | c2 AB | G2 A2 | F4 | z4 | z4 | z4 | %204
 F2 F2 | A2 A2 | B2 A2 | G2 z2 | c2 B2 | A2 F2 | B2 A2 | G2 z2 | F2 F2 | A2 F2 | G2 A2 | B2 z2 | %216
 c2 A2 | d2 c2 | B4 | G2 z2 | z4 | z4 | z4 | z4 | F2 A2 | F4 | GA BA | G4 | A2 F2 | D2 D2 | BA GF | %231
 E4 | c2 A2 | d2 A2 | B2 G2 | c4 | A2 F2 | A2 F2 | B2 A2 | G2 AB | c2 AB | c2 AB | c2 AB | G2 A2 | %244
 F4 |] %245
V:3
 [A,CF]4 | [A,DF]4 | [B,DF]4 | [G,CE]4 | [A,CF]4 | [A,DF]4 | [B,DF]4 | [G,CE]4 | [A,CF]4 | %9
 [A,DF]4 | [B,DF]4 | [G,CE]4 | [A,CF]4 | [A,DF]4 | [B,DF]4 | [G,CE]4 | [A,CF]4 | [A,DF]4 | %18
 [B,DF]4 | [G,CE]4 | [A,CF]4 | [A,DF]4 | [B,DF]4 | [G,CE]4 | [A,CF]4 | [A,DF]4 | [B,DF]4 | %27
 [G,CE]4 | [A,CF]4 | [A,DF]4 | [B,DF]4 | [G,CE]4 | [A,CF]4 | [A,DF]4 | [B,DF]4 | [G,CE]4 | %36
 [A,CF]4 | [A,DF]4 | [B,DF]4 | [G,CE]4 | [A,CF]4 | [A,DF]4 | [B,DF]4 | [G,CE]2 z2 | [A,CF]4 | %45
 [A,DF]4 | [B,DF]4 | [G,CE]4 | [A,CF]4 | [A,DF]4 | [B,DF]4 | [G,CE]4 | [A,CF]4 | [A,DF]4 | %54
 [B,DF]4 | [G,CE]4 | [A,CF]4 | [A,DF]4 | [B,DF]4 | [G,CE]4 | [A,CF]4 | [A,DF]4 | [B,DF]4 | %63
 [G,CE]4 | [A,CF]4 | [A,DF]4 | [B,DF]4 | [G,CE]4 | [A,CF]4 | [A,DF]4 | [B,DF]4 | [G,CE]4 | %72
 [A,CF]4 | [A,DF]4 | [B,DF]4 | [G,CE]4 | [A,CF]4 | [A,DF]4 | [B,DF]4 | [G,CE]4 | [A,CF]4 | %81
 [A,DF]4 | [B,DF]4 | [G,CE]4 | [A,CF]4 | [A,DF]4 | [B,DF]4 | [G,CE]2 z2 | [A,CF]4 | [A,DF]4 | %90
 [B,DF]4 | [G,CE]4 | [A,CF]4 | [A,DF]4 | [B,DF]4 | [G,CE]4 | [A,CF]4 | [A,DF]4 | [B,DF]4 | %99
 [G,CE]4 | [A,CF]4 | [A,DF]4 | [B,DF]4 | [G,CE]4 | [A,CF]4 | [A,DF]4 | [B,DF]4 | [G,CE]4 | %108
 [A,CF]4 | [A,DF]4 | [B,DF]4 | [G,CE]4 | [A,CF]4 | [A,DF]4 | [B,DF]4 | [G,CE]4 | [A,CF]4 | %117
 [A,DF]4 | [B,DF]4 | [G,CE]4 | [A,CF]4 | [A,DF]4 | [B,DF]4 | [G,CE]4 | [A,CF]4 | [A,DF]4 | %126
 [B,DF]4 | [G,CE]4 | [A,CF]4 | [A,DF]4 | [B,DF]4 | [G,CE]2 z2 | [A,CF]4 | [A,DF]4 | [B,DF]4 | %135
 [G,CE]4 | [A,CF]4 | [A,DF]4 | [B,DF]4 | [G,CE]4 | [A,CF]4 | [A,DF]4 | [B,DF]4 | [G,CE]4 | %144
 [A,CF]4 | [A,DF]4 | [B,DF]4 | [G,CE]4 | [A,CF]4 | [A,DF]4 | [B,DF]4 | [G,CE]4 | [A,CF]4 | %153
 [A,DF]4 | [B,DF]4 | [G,CE]4 | [A,CF]4 | [A,DF]4 | [B,DF]4 | [G,CE]4 | [A,CF]4 | [A,DF]4 | %162
 [B,DF]4 | [G,CE]4 | [A,CF]4 | [A,DF]4 | [B,DF]4 | [G,CE]4 | [A,CF]4 | [A,DF]4 | [B,DF]4 | %171
 [G,CE]4 | [A,CF]4 | [A,DF]4 | [B,DF]4 | [G,CE]2 z2 | [A,CF]4 | [A,DF]4 | [B,DF]4 | [G,CE]4 | %180
 [A,CF]4 | [A,DF]4 | [B,DF]4 | [G,CE]4 | [A,CF]4 | [A,DF]4 | [B,DF]4 | [G,CE]4 | [A,CF]4 | %189
 [A,DF]4 | [B,DF]4 | [G,CE]4 | [A,CF]4 | [A,DF]4 | [B,DF]4 | [G,CE]4 | [A,CF]4 | [A,DF]4 | %198
 [B,DF]4 | [G,CE]4 | [A,CF]4 | [A,DF]4 | [B,DF]4 | [G,CE]4 | [A,CF]4 | [A,DF]4 | [B,DF]4 | %207
 [G,CE]4 | [A,CF]4 | [A,DF]4 | [B,DF]4 | [G,CE]4 | [A,CF]4 | [A,DF]4 | [B,DF]4 | [G,CE]4 | %216
 [A,CF]4 | [A,DF]4 | [B,DF]4 | [G,CE]4 | [A,CF]4 | [A,DF]4 | [B,DF]4 | [G,CE]4 | [A,CF]4 | %225
 [A,DF]4 | [B,DF]4 | [G,CE]4 | [A,CF]4 | [A,DF]4 | [B,DF]4 | [G,CE]4 | [A,CF]4 | [A,DF]4 | %234
 [B,DF]4 | [G,CE]4 | [A,CF]4 | [A,DF]4 | [B,DF]4 | [G,CE]4 | [A,CF]4 | [A,DF]4 | [B,DF]4 | %243
 [G,CE]4 | [A,CF]4 |] %245

